X:663
T: Jianli xinshijie
N: C2189
O: China, Hunan Liuyang
S: I, 525]
R: Xiaodiao, Dieduanqiao]
M: 2/4
L: 1/16
K: C
A2A4c2 | A3cE2G2 | A2A4c2 | d3ge2d2 | c2A2c4
A2A4c2 | A2G2E2DE | G8 | A2d2c2A2 | G8
d2g2e2d2 | c6A2 | d2g2e2d2 | c2A2d2B2 | A2A4c2 | A3GE2DE | G4E4
E2D2E2G2 | A2G2A4 | c2d2c2A2
A3cA2G2 | E2G2E2D2 | A3cA2G2 | E2G2E2D2
e2e2e2g2 | e3dc2A2 | d6z2 | e2a2g2e2 | d8

